svg/country-4x3/dj.svg

<?xml version="1.0" encoding="UTF-8" standalone="no"?>
<!-- Created with Sodipodi ("http://www.sodipodi.com/") -->

<svg
   xmlns:dc="http://purl.org/dc/elements/1.1/"
   xmlns:cc="http://creativecommons.org/ns#"
   xmlns:rdf="http://www.w3.org/1999/02/22-rdf-syntax-ns#"
   xmlns:svg="http://www.w3.org/2000/svg"
   xmlns="http://www.w3.org/2000/svg"
   xmlns:sodipodi="http://sodipodi.sourceforge.net/DTD/sodipodi-0.dtd"
   xmlns:inkscape="http://www.inkscape.org/namespaces/inkscape"
   version="1"
   x="0"
   y="0"
   width="640"
   height="480"
   id="svg378"
   sodipodi:version="0.32"
   sodipodi:docname="dj.svg"
   inkscape:version="0.48.1 r9760">
  <sodipodi:namedview
     id="base"
     showgrid="false"
     inkscape:zoom="0.30856358"
     inkscape:cx="119.91046"
     inkscape:cy="354.33051"
     inkscape:window-width="1280"
     inkscape:window-height="746"
     inkscape:window-x="0"
     inkscape:window-y="24"
     inkscape:window-maximized="1"
     inkscape:current-layer="svg378" />
  <metadata
     id="metadata9">
    <rdf:RDF>
      <cc:Work
         rdf:about="">
        <dc:format>image/svg+xml</dc:format>
        <dc:type
           rdf:resource="http://purl.org/dc/dcmitype/StillImage" />
      </cc:Work>
    </rdf:RDF>
  </metadata>
  <defs
     id="defs380">
    <clipPath
       clipPathUnits="userSpaceOnUse"
       id="clipPath58492">
      <rect
         id="rect58494"
         height="708.66101"
         x="55.364143"
         style="fill:#000000;fill-opacity:0.67000002;stroke:none"
         width="708.66101"
         y="-6.5337881e-05" />
    </clipPath>
    <clipPath
       clipPathUnits="userSpaceOnUse"
       id="clipPath4190">
      <rect
         id="rect4192"
         height="512"
         x="-40"
         style="fill:#000000;fill-opacity:0.67000002;stroke:none"
         width="682.66669"
         y="2.4115841e-06" />
    </clipPath>
  </defs>
  <g
     id="flag"
     transform="matrix(0.9375,0,0,0.9375,37.5,-2.2608601e-6)"
     clip-path="url(#clipPath4190)"
     inkscape:label="#g4138">
    <rect
       width="767.9989"
       height="512"
       x="-40"
       y="2.4115841e-06"
       style="font-size:12px;fill:#00cc00;fill-opacity:1;fill-rule:evenodd;stroke-width:1pt"
       id="rect149" />
    <rect
       width="767.9989"
       height="256.00037"
       x="-40"
       y="4.7205918e-05"
       style="font-size:12px;fill:#6699ff;fill-opacity:1;fill-rule:evenodd;stroke-width:1pt"
       id="rect280" />
    <path
       inkscape:connector-curvature="0"
       d="M -40,2.5157295e-5 342.72574,255.67165 -40,511.01382 -40,2.5157295e-5 z"
       style="font-size:12px;fill:#fffefe;fill-opacity:1;fill-rule:evenodd;stroke-width:1pt"
       id="path279" />
    <path
       inkscape:connector-curvature="0"
       d="M 119.80119,292.07297 88.980269,269.88591 58.310367,292.2909 69.71719,255.88167 39.103553,233.39907 76.97823,233.0856 l 11.747369,-36.29876 11.999081,36.21518 37.87467,0.0478 -30.45669,22.69457 11.65853,36.32862 z"
       style="font-size:12px;fill:#ff0000;fill-opacity:1;fill-rule:evenodd;stroke-width:0.112872"
       id="path205" />
  </g>
</svg>

<?xml version="1.0" encoding="UTF-8" standalone="no"?>
<!-- Created with Sodipodi ("http://www.sodipodi.com/") -->
<svg id="svg378" xmlns:rdf="http://www.w3.org/1999/02/22-rdf-syntax-ns#" xmlns="http://www.w3.org/2000/svg" height="480" width="640" version="1" y="0" x="0" xmlns:cc="http://creativecommons.org/ns#" xmlns:dc="http://purl.org/dc/elements/1.1/">
 <metadata id="metadata9">
  <rdf:RDF>
   <cc:Work rdf:about="">
    <dc:format>image/svg+xml</dc:format>
    <dc:type rdf:resource="http://purl.org/dc/dcmitype/StillImage"/>
   </cc:Work>
  </rdf:RDF>
 </metadata>
 <defs id="defs380">
  <clipPath id="clipPath4190" clipPathUnits="userSpaceOnUse">
   <rect id="rect4192" fill-opacity="0.67" height="512" width="682.67" y=".0000024116" x="-40"/>
  </clipPath>
 </defs>
 <g id="flag" clip-path="url(#clipPath4190)" fill-rule="evenodd" transform="matrix(.9375 0 0 .9375 37.5 -.0000022609)">
  <rect id="rect149" height="512" width="768" y=".0000024116" x="-40" stroke-width="1pt" fill="#0c0"/>
  <rect id="rect280" height="256" width="768" y=".000047206" x="-40" stroke-width="1pt" fill="#69f"/>
  <path id="path279" d="m-40 0.000025157 382.73 255.67-382.73 255.34v-511.01z" stroke-width="1pt" fill="#fffefe"/>
  <path id="path205" d="m119.8 292.07-30.82-22.18-30.67 22.4 11.407-36.41-30.613-22.48 37.874-0.31l11.747-36.299 11.999 36.215 37.875 0.0478-30.457 22.695 11.659 36.329z" stroke-width=".11287" fill="#f00"/>
 </g>
</svg>
